!!!OTL: Die Rheinbraut.
!!!OTL-incipit: Christinchen ging in' Garten,
!!!ARE: Europa, Mitteleuropa, Deutschland (), Thueringen, Greiz
!!!YOR: 2, S. 176
!!    1914 aufgezeichnet
!!!SCT: Q0047E
!!!TXL: @@DE
!!!YEM: Copyright 1995, estate of Helmut Schaffrath.
**kern	**text
*ICvox	*
*M6/8	*
*k[f#c#]	*
*D:	*
{8a	1._Chri-
=1	=1
4a	-ſtin-
8a	-chen
4ee	ging
8ff#	in
=2	=2
8ee	Gar-
8dd	-ten,
8r	.
4r}	.
{8a	drei
=3	=3
4a	Ro-
8a	-ſen
4ee	ʒu
8ff#	er-
=4	=4
8ee	-war-
8dd	-ten,
8r	.
4r}	.
{8dd	die
=5	=5
4dd	er-
8dd	-ſie
4ee	weiß,
8dd	die
=6	=6
4cc#	ʒwei-
8b	-te
4dd}	rot,
{8b	die
=7	=7
4b	drit-
8a	-te
4cc#	war
8b	ihr
=8	=8
4a	bitt-
8g	-rer
4f#}	Tod.
{8dd	die
=9	=9
4dd	er-
8dd	-ſie
4ee	weiß,
8dd	die
=10	=10
4cc#	ʒwei-
8b	-te
4dd}	rot,
{8b	die
=11	=11
4b	drit-
8a	-te
4cc#	war
8b	ihr
=12	=12
4a	bitt-
8g	-rer
4f#}	Tod.
==	==
!!!AGN: Ballade, Braut - Werbung, Todesahnung, Tod
!! Grundton in der zweigestrichenen Oktave.
!!!ONB: ESAC (Essen Associative Code) Database: BALLADE
!!!AMT: compound duple
!!!AIN: vox
!!!EED: Helmut Schaffrath
!!!EEV: 1.0
!!@@COMMENT:"A 104481. Thüringen 1914. aus Greiʒer Kindermund."
!!@@END:
!!!source: Deutsche Volkslieder mit ihren Melodien. Herausgegeben vom Deutschen Volksliedarchiv. Zweiter Band Balladen. Berlin 1939.
!!!page: 176
!!!ENC: Anna Maria Matuszewska
!!!EEV: 2025/02/17
*-	*-
